learning-site/svg (94).svg

<svg xmlns="http://www.w3.org/2000/svg" xmlns:xlink="http://www.w3.org/1999/xlink" viewBox="0 0 100 100" version="1.1"><!-- Generator: Sketch 51.3 (57544) - http://www.bohemiancoding.com/sketch --><title>create-serverless-logic-with-azure-functions</title><desc>Created with Sketch.</desc><defs><filter x="-2.9%" y="-1.4%" width="105.9%" height="105.6%" filterUnits="objectBoundingBox" id="filter-1"><feOffset dx="0" dy="2" in="SourceAlpha" result="shadowOffsetOuter1"></feOffset><feColorMatrix values="0 0 0 0 0   0 0 0 0 0   0 0 0 0 0  0 0 0 0.304829031 0" type="matrix" in="shadowOffsetOuter1" result="shadowMatrixOuter1"></feColorMatrix><feMerge><feMergeNode in="shadowMatrixOuter1"></feMergeNode><feMergeNode in="SourceGraphic"></feMergeNode></feMerge></filter></defs><g id="Badges-FINAL" stroke="none" stroke-width="1" fill="none" fill-rule="evenodd"><g id="Create-backend-services-in-Azure" transform="translate(-577.000000, -319.000000)"><g id="create-serverless-logic-with-azure-functions" transform="translate(577.000000, 319.000000)"><rect id="BG" fill="#55A2FF" x="2" y="2" width="96" height="96" rx="48"></rect><path d="M81.0302343,52.2993084 C79.3232315,52.2993084 77.934448,53.6880919 77.934448,55.3950947 C77.934448,56.0830472 78.1408337,56.7022044 78.510611,57.2095281 C78.5149148,57.2181248 78.5235115,57.2224286 78.5278153,57.2310253 L74.1894216,65.3832075 L48.658128,65.3832075 L48.658128,56.4828632 L61.0588848,56.4828632 C61.5705453,57.5061953 62.6197114,58.2156229 63.832159,58.2156229 C65.5391618,58.2156229 66.9279453,56.8268394 66.9279453,55.1069581 C66.9279453,53.3999553 65.5391618,52.0111718 63.832159,52.0111718 C62.6238942,52.0111718 61.5747941,52.7163177 61.0631776,53.7310531 L48.6547157,53.7310531 L48.6547157,44.8307088 L63.1149272,44.8307088 C63.5964939,44.8307088 64.0522597,44.5684282 64.2973249,44.1556567 L68.8635685,36.3560364 L76.0526172,36.3560364 C76.5642777,37.3750647 77.6134438,38.0887961 78.8215985,38.0887961 C80.5286013,38.0887961 81.9173848,36.6871342 81.9173848,34.9801314 C81.9173848,33.2731285 80.5286013,31.884345 78.8215985,31.884345 C77.6133338,31.884345 76.5642337,32.5894909 76.0526172,33.6042263 L68.072368,33.5999335 C67.5908013,33.5999335 67.1350355,33.862214 66.8899703,34.287886 L62.3366052,42.0746279 L48.6590085,42.0746279 L48.6590085,28.9650048 L62.4477784,28.9650048 C62.9551461,29.9883369 64.0000194,30.6977645 65.2253453,30.6977645 C66.9323482,30.6977645 68.3211317,29.308981 68.3211317,27.5890998 C68.3211317,25.882097 66.9323482,24.4933135 65.2253453,24.4933135 C64.0042021,24.4933135 62.9636877,25.1984593 62.4520712,26.2131947 L48.6027615,26.2131947 C48.0782005,20.8214082 43.486156,16.5818595 37.8964593,16.5818595 C31.9929461,16.5818595 27.190157,21.3287319 27.1386431,27.1634498 C22.6239135,28.483438 19.4593319,32.5982746 19.4593319,37.3709039 C19.4593319,38.8156042 19.7603139,40.2345475 20.3278692,41.5243759 C17.6577329,43.5323167 16.0496852,46.6711413 16.0496852,50.0292302 C16.0496852,53.4947497 17.7695664,56.7281265 20.5901717,58.7103103 C20.4267803,59.4541576 20.3149907,60.2109274 20.3149907,60.9934321 C20.3149907,65.7962212 23.4924508,69.9110578 28.0329374,71.2181676 C28.0200369,71.4675476 27.9899431,71.7126348 27.9899431,71.9749154 C27.9899431,77.8525615 32.8184891,82.6253008 38.7520521,82.6253008 C42.7292982,82.6253008 45.936808,80.4797696 47.5449658,77.1216807 L66.5104406,77.1216807 C67.0178084,78.1450128 68.0626817,78.8544405 69.2880076,78.8544405 C70.9950105,78.8544405 72.383794,77.465657 72.383794,75.7457757 C72.383794,74.0387729 70.9950105,72.6499894 69.2880076,72.6499894 C68.0668644,72.6499894 67.02635,73.3551352 66.5147335,74.3698707 L48.4298378,74.3698707 C48.576025,73.6045263 48.6577207,72.809044 48.6577207,71.9749154 L48.6577207,68.1352597 L75.0189603,68.1352597 C75.526328,68.1352597 75.9949943,67.8600787 76.2315179,67.4215063 L80.9655117,58.5038805 L81.034307,58.5038805 C82.7541883,58.5038805 84.1429718,57.115097 84.1429718,55.3952158 C84.1386679,53.6882129 82.7498954,52.2994294 81.0300142,52.2994294 L81.0302343,52.2993084 Z" id="Brain" fill="#FFFFFF"></path><g id="Lightning" filter="url(#filter-1)" transform="translate(32.577694, 14.000000)"><polygon id="Fill-409" fill="#FCD116" points="33.4243004 0.651131634 8.18134221 0.651131634 0.498702777 38.5784349 12.6937426 38.5784349 12.6937426 71.5238203 32.3267804 28.2875188 22.4491012 28.2875188"></polygon><polygon id="Fill-409-Copy" fill="#FDBD0F" points="33.4243004 0.651131634 23.9991297 0.651131634 10.8853585 32.8065267 20.4886577 32.8065267 12.6937426 71.5238203 32.3267804 28.2875188 22.4491012 28.2875188"></polygon></g><g id="Azure-Border" stroke="#0078D4" stroke-width="4"><rect x="2" y="2" width="96" height="96" rx="48"></rect></g></g></g></g></svg>

<svg xmlns="http://www.w3.org/2000/svg" viewBox="0 0 100 100"><defs><filter x="-2.9%" y="-1.4%" width="105.9%" height="105.6%" filterUnits="objectBoundingBox" id="a"><feOffset dy="2" in="SourceAlpha" result="shadowOffsetOuter1"/><feColorMatrix values="0 0 0 0 0 0 0 0 0 0 0 0 0 0 0 0 0 0 0.304829031 0" in="shadowOffsetOuter1" result="shadowMatrixOuter1"/><feMerge><feMergeNode in="shadowMatrixOuter1"/><feMergeNode in="SourceGraphic"/></feMerge></filter></defs><g fill="none" fill-rule="evenodd"><rect fill="#55A2FF" x="2" y="2" width="96" height="96" rx="48"/><path d="M81.03 52.3a3.1 3.1 0 0 0-3.096 3.095c0 .688.207 1.307.577 1.815.004.008.013.012.017.021l-4.339 8.152H48.66v-8.9h12.4a3.108 3.108 0 0 0 2.773 1.733 3.102 3.102 0 0 0 0-6.205 3.11 3.11 0 0 0-2.769 1.72H48.655v-8.9h14.46c.481 0 .937-.263 1.182-.675l4.567-7.8h7.189c.511 1.02 1.56 1.733 2.769 1.733 1.707 0 3.095-1.402 3.095-3.109a3.1 3.1 0 0 0-3.095-3.096 3.11 3.11 0 0 0-2.77 1.72l-7.98-.004c-.481 0-.937.262-1.182.688l-4.553 7.787H48.659v-13.11h13.789a3.095 3.095 0 0 0 2.777 1.733 3.102 3.102 0 0 0 0-6.205 3.102 3.102 0 0 0-2.773 1.72h-13.85c-.524-5.392-5.116-9.631-10.706-9.631-5.903 0-10.706 4.747-10.757 10.581-4.515 1.32-7.68 5.435-7.68 10.208 0 1.445.301 2.864.869 4.153-2.67 2.008-4.278 5.147-4.278 8.505 0 3.466 1.72 6.7 4.54 8.681-.163.744-.275 1.5-.275 2.283 0 4.803 3.177 8.918 7.718 10.225-.013.25-.043.495-.043.757 0 5.878 4.828 10.65 10.762 10.65 3.977 0 7.185-2.145 8.793-5.503H66.51a3.095 3.095 0 0 0 2.778 1.732 3.102 3.102 0 0 0 0-6.204 3.102 3.102 0 0 0-2.773 1.72H48.43c.146-.765.228-1.561.228-2.395v-3.84h26.361c.507 0 .976-.275 1.213-.713l4.734-8.918h.068a3.105 3.105 0 0 0 3.109-3.109A3.109 3.109 0 0 0 81.03 52.3z" fill="#FFF"/><g filter="url(#a)" transform="translate(32.578 14)"><path fill="#FCD116" d="M33.424.651H8.181L.5 38.578h12.195v32.946l19.633-43.236h-9.878z"/><path fill="#FDBD0F" d="M33.424.651H24L10.885 32.807h9.604l-7.795 38.717 19.633-43.236h-9.878z"/></g><rect x="2" y="2" width="96" height="96" rx="48" stroke="#0078D4" stroke-width="4"/></g></svg>
